src/assets/duotone/RotateRight1.svg

<svg width="24" height="24" viewBox="0 0 24 24"  xmlns="http://www.w3.org/2000/svg">
<path opacity="0.4" d="M7.81 2H16.18C19.83 2 22 4.17 22 7.81V16.18C22 19.82 19.83 21.99 16.19 21.99H7.81C4.17 22 2 19.83 2 16.19V7.81C2 4.17 4.17 2 7.81 2Z" />
<path d="M12 18.5801C8.83 18.5801 6.25 16.0001 6.25 12.8301C6.25 9.72012 8.73 7.19012 11.81 7.08012L11.44 6.65012C11.17 6.34012 11.2 5.86012 11.51 5.59012C11.82 5.32012 12.3 5.35012 12.57 5.66012L14.23 7.56012C14.25 7.58012 14.26 7.60012 14.28 7.62012C14.32 7.68012 14.36 7.75012 14.38 7.82012C14.39 7.86012 14.4 7.90012 14.41 7.94012C14.43 8.03012 14.42 8.13012 14.4 8.22012C14.38 8.30012 14.35 8.38012 14.31 8.46012C14.3 8.48012 14.28 8.50012 14.27 8.52012C14.23 8.58012 14.17 8.63012 14.11 8.67012C14.11 8.67012 14.1 8.67012 14.1 8.68012L12.16 10.1001C11.82 10.3401 11.36 10.2701 11.11 9.94012C10.87 9.61012 10.94 9.14012 11.27 8.89012L11.68 8.59012C9.48 8.75012 7.74 10.5901 7.74 12.8301C7.74 15.1701 9.65 17.0801 11.99 17.0801C14.33 17.0801 16.24 15.1701 16.24 12.8301C16.24 11.9901 15.99 11.1701 15.53 10.4701C15.3 10.1301 15.39 9.66012 15.74 9.43012C16.09 9.20012 16.55 9.29012 16.78 9.64012C17.41 10.5901 17.75 11.6901 17.75 12.8301C17.75 16.0001 15.17 18.5801 12 18.5801Z" />
</svg>

<?xml version="1.0" encoding="UTF-8"?>
<svg width="24" height="24" viewBox="0 0 24 24" xmlns="http://www.w3.org/2000/svg">
 <path d="M7.81 2H16.18C19.83 2 22 4.17 22 7.81V16.18C22 19.82 19.83 21.99 16.19 21.99H7.81C4.17 22 2 19.83 2 16.19V7.81C2 4.17 4.17 2 7.81 2Z" opacity=".4"/>
 <path d="m12 18.58c-3.17 0-5.75-2.58-5.75-5.75 0-3.11 2.48-5.64 5.56-5.75l-0.37-0.43c-0.27-0.31-0.24-0.79 0.07-1.06s0.79-0.24 1.06 0.07l1.66 1.9c0.02 0.02 0.03 0.04 0.05 0.06 0.04 0.06 0.08 0.13 0.1 0.2l0.03 0.12c0.02 0.09 0.01 0.19-0.01 0.28-0.02 0.08-0.05 0.16-0.09 0.24-0.01 0.02-0.03 0.04-0.04 0.06-0.04 0.06-0.1 0.11-0.16 0.15 0 0-0.01 0-0.01 0.01l-1.94 1.42c-0.34 0.24-0.8 0.17-1.05-0.15998-0.24-0.33-0.17-0.8 0.16-1.05l0.41-0.3c-2.2 0.16-3.94 2-3.94 4.24 0 2.34 1.91 4.25 4.25 4.25s4.25-1.91 4.25-4.25c0-0.84-0.25-1.66-0.71-2.36-0.23-0.34-0.14-0.80998 0.21-1.04s0.81-0.14 1.04 0.21c0.63 0.94998 0.97 2.05 0.97 3.19 0 3.17-2.58 5.75-5.75 5.75z"/>
</svg>
